T: Luradan's
M: 6/8
L: 1/8
K: Dmaj
|: EAA A2 A | BAB cAF | ABc BAF | EFA B2 c | BAF FEA | FEc BAF | EFA BAB |1 cAA A2 F:|2 cAA A3:|
